X: 42526
T: Wheels Of The World, The
R: jig
M: 6/8
K: Gmajor
|:FDD ADD|BDD c2A|Bcd ecA|A2G FED|
FDD ADD|BDD c2A|Bcd ecA|1 AGF GAG:|2 AGF G2D||
GB/c/d gdB|dBG c2A|Bcd ecA|A2G FED|
GB/c/d gdB|dBG c2A|Bcd ecA|AGF G3|
GB/c/d gdB|dBG c2A|Bcd ecA|A2G FED|
G3 A3|B3 c2A|Bcd ecA|AGF GAG||

